X: 4
T: Sliabh Russell
R: jig
M: 6/8
L: 1/8
K: Ador
|: eAA Bcd | eaf ged | edB cBA | BGG Bcd |eAA Bcd | eaf ged | edB cBA | BAG A3 :||: eaa efg | agf ged | eaa efg | fed e2 d |eaa efg | agf ged | edB cBA | BAG A3 :|


Tune 335	Setting 13119

